static/img/kroki/69c132e7e4d14c4e49a0af2f8d06b8cd.svg

<?xml version="1.0" encoding="us-ascii" standalone="no"?><svg xmlns="http://www.w3.org/2000/svg" xmlns:xlink="http://www.w3.org/1999/xlink" contentStyleType="text/css" height="374px" preserveAspectRatio="none" style="width:389px;height:374px;" version="1.1" viewBox="0 0 389 374" width="389px" zoomAndPan="magnify"><defs/><g><!--class kubernetes_priority_level_configuration--><g id="elem_kubernetes_priority_level_configuration"><rect codeLine="23" fill="#3D176E" height="39.7891" id="kubernetes_priority_level_configuration" rx="2.5" ry="2.5" style="stroke:#000D19;stroke-width:0.5;" width="375" x="7" y="328.58"/><ellipse cx="22" cy="348.4745" fill="#ADD1B2" rx="11" ry="11" style="stroke:#181818;stroke-width:1.0;"/><path d="M24.9688,354.1152 Q24.3906,354.412 23.75,354.5527 Q23.1094,354.7089 22.4063,354.7089 Q19.9063,354.7089 18.5781,353.0683 Q17.2656,351.412 17.2656,348.287 Q17.2656,345.162 18.5781,343.5058 Q19.9063,341.8495 22.4063,341.8495 Q23.1094,341.8495 23.75,342.0058 Q24.4063,342.162 24.9688,342.4589 L24.9688,345.1777 Q24.3438,344.5995 23.75,344.3339 Q23.1563,344.0527 22.5313,344.0527 Q21.1875,344.0527 20.5,345.1308 Q19.8125,346.1933 19.8125,348.287 Q19.8125,350.3808 20.5,351.4589 Q21.1875,352.5214 22.5313,352.5214 Q23.1563,352.5214 23.75,352.2558 Q24.3438,351.9745 24.9688,351.3964 L24.9688,354.1152 Z " fill="#000000"/><text fill="#D9B8FF" font-family="Helvetica" font-size="17" lengthAdjust="spacing" textLength="333" x="41" y="354.3598">kubernetes_priority_level_configuration</text></g><!--class kubernetes_resource--><g id="elem_kubernetes_resource"><rect codeLine="26" fill="#3D176E" height="39.7891" id="kubernetes_resource" rx="2.5" ry="2.5" style="stroke:#000D19;stroke-width:0.5;" width="216" x="86.5" y="167.79"/><ellipse cx="101.5" cy="187.6845" fill="#ADD1B2" rx="11" ry="11" style="stroke:#181818;stroke-width:1.0;"/><path d="M104.4688,193.3252 Q103.8906,193.622 103.25,193.7627 Q102.6094,193.9189 101.9063,193.9189 Q99.4063,193.9189 98.0781,192.2783 Q96.7656,190.622 96.7656,187.497 Q96.7656,184.372 98.0781,182.7158 Q99.4063,181.0595 101.9063,181.0595 Q102.6094,181.0595 103.25,181.2158 Q103.9063,181.372 104.4688,181.6689 L104.4688,184.3877 Q103.8438,183.8095 103.25,183.5439 Q102.6563,183.2627 102.0313,183.2627 Q100.6875,183.2627 100,184.3408 Q99.3125,185.4033 99.3125,187.497 Q99.3125,189.5908 100,190.6689 Q100.6875,191.7314 102.0313,191.7314 Q102.6563,191.7314 103.25,191.4658 Q103.8438,191.1845 104.4688,190.6064 L104.4688,193.3252 Z " fill="#000000"/><text fill="#D9B8FF" font-family="Helvetica" font-size="17" lengthAdjust="spacing" textLength="174" x="120.5" y="193.5698">kubernetes_resource</text></g><!--class resource--><g id="elem_resource"><rect codeLine="29" fill="#3D176E" height="39.7891" id="resource" rx="2.5" ry="2.5" style="stroke:#000D19;stroke-width:0.5;" width="113" x="138" y="7"/><ellipse cx="153" cy="26.8945" fill="#ADD1B2" rx="11" ry="11" style="stroke:#181818;stroke-width:1.0;"/><path d="M155.9688,32.5352 Q155.3906,32.832 154.75,32.9727 Q154.1094,33.1289 153.4063,33.1289 Q150.9063,33.1289 149.5781,31.4883 Q148.2656,29.832 148.2656,26.707 Q148.2656,23.582 149.5781,21.9258 Q150.9063,20.2695 153.4063,20.2695 Q154.1094,20.2695 154.75,20.4258 Q155.4063,20.582 155.9688,20.8789 L155.9688,23.5977 Q155.3438,23.0195 154.75,22.7539 Q154.1563,22.4727 153.5313,22.4727 Q152.1875,22.4727 151.5,23.5508 Q150.8125,24.6133 150.8125,26.707 Q150.8125,28.8008 151.5,29.8789 Q152.1875,30.9414 153.5313,30.9414 Q154.1563,30.9414 154.75,30.6758 Q155.3438,30.3945 155.9688,29.8164 L155.9688,32.5352 Z " fill="#000000"/><text fill="#D9B8FF" font-family="Helvetica" font-size="17" lengthAdjust="spacing" textLength="71" x="172" y="32.7798">resource</text></g><!--reverse link kubernetes_resource to kubernetes_priority_level_configuration--><g id="link_kubernetes_resource_kubernetes_priority_level_configuration"><path codeLine="32" d="M194.5,225.84 C194.5,256.36 194.5,297.69 194.5,328.25 " fill="none" id="kubernetes_resource-backto-kubernetes_priority_level_configuration" style="stroke:#FFAF37;stroke-width:2.0;"/><polygon fill="none" points="194.5,207.84,188.5,225.84,200.5,225.84,194.5,207.84" style="stroke:#FFAF37;stroke-width:2.0;"/></g><!--reverse link resource to kubernetes_resource--><g id="link_resource_kubernetes_resource"><path codeLine="33" d="M194.5,65.05 C194.5,95.57 194.5,136.9 194.5,167.46 " fill="none" id="resource-backto-kubernetes_resource" style="stroke:#FFAF37;stroke-width:2.0;"/><polygon fill="none" points="194.5,47.05,188.5,65.05,200.5,65.05,194.5,47.05" style="stroke:#FFAF37;stroke-width:2.0;"/></g><!--SRC=[ZP9BRy9038Jl-HKhSKQ2eXQGUg58LNj1LUaTBTbPM2LPHru7H1__lL1AjIGyUlLyzemjBvs1Gb7AHXKevk2GXCpvKhCkr8YPrcFAYLNBMcrx_RhuI5wk0XDTG3qXNq5Sgkl4szAbcKS8wYQI7dIQBPWgR_RZXRKFMmbU8cgSwn168kpcbI0AOuRpWRLriZwqrJFT_XqQ6B41_oATJiTqXtNagjN5lV-8gNk7wiP7cv2W4RDXyKDTJBaZef2DHG_wsOmlsXZd5-esghtkCx477zMdIsrelQEjpaDi4mGCaas9SMCh30V6za_2p-VW9DsTJcNLzbCz165MiYDsifdbM26VfUIjMrIinP5N7qdorMnX1AeuHImVrqx1zv_jTlk_pidvjeEIV0C0]--></g></svg>

<svg xmlns="http://www.w3.org/2000/svg" width="389" height="374" viewBox="0 0 389 374"><rect width="375" height="39.789" x="7" y="328.58" fill="#3D176E" rx="2.5" ry="2.5" style="stroke:#000d19;stroke-width:.5"/><circle cx="22" cy="348.474" r="11" fill="#ADD1B2" style="stroke:#181818;stroke-width:1"/><path d="M24.969 354.115q-.578.297-1.219.438-.64.156-1.344.156-2.5 0-3.828-1.64-1.312-1.657-1.312-4.782t1.312-4.781q1.328-1.656 3.828-1.656.703 0 1.344.156.656.156 1.219.453v2.719q-.625-.579-1.219-.844-.594-.281-1.219-.281-1.343 0-2.031 1.078-.687 1.062-.687 3.156t.687 3.172q.688 1.062 2.031 1.062.625 0 1.219-.265.594-.281 1.219-.86z"/><text x="41" y="354.36" fill="#D9B8FF" font-family="Helvetica" font-size="17" textLength="333">kubernetes_priority_level_configuration</text><rect width="216" height="39.789" x="86.5" y="167.79" fill="#3D176E" rx="2.5" ry="2.5" style="stroke:#000d19;stroke-width:.5"/><circle cx="101.5" cy="187.685" r="11" fill="#ADD1B2" style="stroke:#181818;stroke-width:1"/><path d="M104.469 193.325q-.578.297-1.219.438-.64.156-1.344.156-2.5 0-3.828-1.64-1.312-1.657-1.312-4.782t1.312-4.781q1.328-1.656 3.828-1.656.703 0 1.344.156.656.156 1.219.453v2.719q-.625-.578-1.219-.844-.594-.281-1.219-.281-1.344 0-2.031 1.078-.687 1.062-.687 3.156t.687 3.172q.688 1.062 2.031 1.062.625 0 1.219-.265.594-.281 1.219-.86z"/><text x="120.5" y="193.57" fill="#D9B8FF" font-family="Helvetica" font-size="17" textLength="174">kubernetes_resource</text><rect width="113" height="39.789" x="138" y="7" fill="#3D176E" rx="2.5" ry="2.5" style="stroke:#000d19;stroke-width:.5"/><circle cx="153" cy="26.895" r="11" fill="#ADD1B2" style="stroke:#181818;stroke-width:1"/><path d="M155.969 32.535q-.578.297-1.219.438-.64.156-1.344.156-2.5 0-3.828-1.64-1.312-1.657-1.312-4.782t1.312-4.781q1.328-1.656 3.828-1.656.703 0 1.344.156.656.156 1.219.453v2.719q-.625-.578-1.219-.844-.594-.281-1.219-.281-1.344 0-2.031 1.078-.687 1.062-.687 3.156t.687 3.172q.688 1.062 2.031 1.062.625 0 1.219-.265.594-.281 1.219-.86z"/><text x="172" y="32.78" fill="#D9B8FF" font-family="Helvetica" font-size="17" textLength="71">resource</text><path fill="none" d="M194.5 225.84v102.41m0-120.41-6 18h12zm0-142.79v102.41m0-120.41-6 18h12z" style="stroke:#ffaf37;stroke-width:2"/></svg>
